img/icon__advantages-4.svg

<svg width="60" height="60" viewBox="0 0 60 60" fill="none" xmlns="http://www.w3.org/2000/svg">
<path d="M10.3125 46.875H7.5C6.50544 46.875 5.55161 46.4799 4.84835 45.7766C4.14509 45.0734 3.75 44.1196 3.75 43.125V35.625C3.75 34.6304 4.14509 33.6766 4.84835 32.9734C5.55161 32.2701 6.50544 31.875 7.5 31.875H10.3125C10.5611 31.875 10.7996 31.9738 10.9754 32.1496C11.1512 32.3254 11.25 32.5639 11.25 32.8125V45.9375C11.25 46.1861 11.1512 46.4246 10.9754 46.6004C10.7996 46.7762 10.5611 46.875 10.3125 46.875ZM7.5 33.75C7.00272 33.75 6.52581 33.9475 6.17417 34.2992C5.82254 34.6508 5.625 35.1277 5.625 35.625V43.125C5.625 43.6223 5.82254 44.0992 6.17417 44.4508C6.52581 44.8025 7.00272 45 7.5 45H9.375V33.75H7.5Z" fill="#FF9999"/>
<path d="M13.125 49.6875C12.1304 49.6875 11.1766 49.2924 10.4733 48.5891C9.77009 47.8859 9.375 46.9321 9.375 45.9375V32.8125C9.375 31.8179 9.77009 30.8641 10.4733 30.1609C11.1766 29.4576 12.1304 29.0625 13.125 29.0625C14.1196 29.0625 15.0734 29.4576 15.7766 30.1609C16.4799 30.8641 16.875 31.8179 16.875 32.8125V45.9375C16.875 46.9321 16.4799 47.8859 15.7766 48.5891C15.0734 49.2924 14.1196 49.6875 13.125 49.6875ZM13.125 30.9375C12.6277 30.9375 12.1508 31.135 11.7992 31.4867C11.4475 31.8383 11.25 32.3152 11.25 32.8125V45.9375C11.25 46.4348 11.4475 46.9117 11.7992 47.2633C12.1508 47.615 12.6277 47.8125 13.125 47.8125C13.6223 47.8125 14.0992 47.615 14.4508 47.2633C14.8025 46.9117 15 46.4348 15 45.9375V32.8125C15 32.3152 14.8025 31.8383 14.4508 31.4867C14.0992 31.135 13.6223 30.9375 13.125 30.9375ZM52.5 46.875H49.6875C49.4389 46.875 49.2004 46.7762 49.0246 46.6004C48.8488 46.4246 48.75 46.1861 48.75 45.9375V32.8125C48.75 32.5639 48.8488 32.3254 49.0246 32.1496C49.2004 31.9738 49.4389 31.875 49.6875 31.875H52.5C53.4946 31.875 54.4484 32.2701 55.1516 32.9734C55.8549 33.6766 56.25 34.6304 56.25 35.625V43.125C56.25 44.1196 55.8549 45.0734 55.1516 45.7766C54.4484 46.4799 53.4946 46.875 52.5 46.875ZM50.625 45H52.5C52.9973 45 53.4742 44.8025 53.8258 44.4508C54.1775 44.0992 54.375 43.6223 54.375 43.125V35.625C54.375 35.1277 54.1775 34.6508 53.8258 34.2992C53.4742 33.9475 52.9973 33.75 52.5 33.75H50.625V45Z" fill="#FF9999"/>
<path d="M46.875 49.6875C45.8804 49.6875 44.9266 49.2924 44.2234 48.5891C43.5201 47.8859 43.125 46.9321 43.125 45.9375V32.8125C43.125 31.8179 43.5201 30.8641 44.2234 30.1609C44.9266 29.4576 45.8804 29.0625 46.875 29.0625C47.8696 29.0625 48.8234 29.4576 49.5266 30.1609C50.2299 30.8641 50.625 31.8179 50.625 32.8125V45.9375C50.625 46.9321 50.2299 47.8859 49.5266 48.5891C48.8234 49.2924 47.8696 49.6875 46.875 49.6875ZM46.875 30.9375C46.3777 30.9375 45.9008 31.135 45.5492 31.4867C45.1975 31.8383 45 32.3152 45 32.8125V45.9375C45 46.4348 45.1975 46.9117 45.5492 47.2633C45.9008 47.615 46.3777 47.8125 46.875 47.8125C47.3723 47.8125 47.8492 47.615 48.2008 47.2633C48.5525 46.9117 48.75 46.4348 48.75 45.9375V32.8125C48.75 32.3152 48.5525 31.8383 48.2008 31.4867C47.8492 31.135 47.3723 30.9375 46.875 30.9375ZM31.875 56.25H28.125C27.3791 56.25 26.6637 55.9537 26.1363 55.4262C25.6088 54.8988 25.3125 54.1834 25.3125 53.4375C25.3125 52.6916 25.6088 51.9762 26.1363 51.4488C26.6637 50.9213 27.3791 50.625 28.125 50.625H31.875C32.6209 50.625 33.3363 50.9213 33.8637 51.4488C34.3912 51.9762 34.6875 52.6916 34.6875 53.4375C34.6875 54.1834 34.3912 54.8988 33.8637 55.4262C33.3363 55.9537 32.6209 56.25 31.875 56.25ZM28.125 52.5C27.8764 52.5 27.6379 52.5988 27.4621 52.7746C27.2863 52.9504 27.1875 53.1889 27.1875 53.4375C27.1875 53.6861 27.2863 53.9246 27.4621 54.1004C27.6379 54.2762 27.8764 54.375 28.125 54.375H31.875C32.1236 54.375 32.3621 54.2762 32.5379 54.1004C32.7137 53.9246 32.8125 53.6861 32.8125 53.4375C32.8125 53.1889 32.7137 52.9504 32.5379 52.7746C32.3621 52.5988 32.1236 52.5 31.875 52.5H28.125Z" fill="#FF9999"/>
<path d="M46.875 54.375H33.75C33.5014 54.375 33.2629 54.2762 33.0871 54.1004C32.9113 53.9246 32.8125 53.6862 32.8125 53.4375C32.8125 53.1889 32.9113 52.9504 33.0871 52.7746C33.2629 52.5988 33.5014 52.5 33.75 52.5H46.875C48.1182 52.5 49.3105 52.0062 50.1896 51.1271C51.0686 50.248 51.5625 49.0557 51.5625 47.8125V45.9375C51.5625 45.6889 51.6613 45.4504 51.8371 45.2746C52.0129 45.0988 52.2514 45 52.5 45C52.7486 45 52.9871 45.0988 53.1629 45.2746C53.3387 45.4504 53.4375 45.6889 53.4375 45.9375V47.8125C53.4375 49.553 52.7461 51.2222 51.5154 52.4529C50.2847 53.6836 48.6155 54.375 46.875 54.375V54.375ZM51.5625 33.75C51.3139 33.75 51.0754 33.6512 50.8996 33.4754C50.7238 33.2996 50.625 33.0612 50.625 32.8125V26.25C50.6261 25.3502 50.5666 24.4513 50.4469 23.5594C50.4309 23.4363 50.4393 23.3112 50.4716 23.1913C50.5039 23.0715 50.5595 22.9592 50.6353 22.8608C50.711 22.7624 50.8054 22.6799 50.913 22.618C51.0206 22.5561 51.1394 22.516 51.2625 22.5C51.3856 22.484 51.5107 22.4924 51.6305 22.5247C51.7504 22.5571 51.8627 22.6127 51.9611 22.6884C52.0595 22.7642 52.142 22.8585 52.2039 22.9662C52.2658 23.0738 52.3059 23.1925 52.3219 23.3156C52.4465 24.2887 52.506 25.269 52.5 26.25V32.8125C52.5 33.0612 52.4012 33.2996 52.2254 33.4754C52.0496 33.6512 51.8111 33.75 51.5625 33.75ZM8.4375 33.75C8.18886 33.75 7.9504 33.6512 7.77459 33.4754C7.59877 33.2996 7.5 33.0612 7.5 32.8125V26.25C7.50022 25.2686 7.56599 24.2883 7.69688 23.3156C7.71288 23.1925 7.75298 23.0738 7.81488 22.9662C7.87678 22.8585 7.95927 22.7642 8.05764 22.6884C8.15601 22.6127 8.26834 22.5571 8.38821 22.5247C8.50807 22.4924 8.63314 22.484 8.75625 22.5C8.87936 22.516 8.99812 22.5561 9.10574 22.618C9.21336 22.6799 9.30773 22.7624 9.38347 22.8608C9.4592 22.9592 9.51482 23.0715 9.54715 23.1913C9.57948 23.3112 9.58788 23.4363 9.57188 23.5594C9.44593 24.4508 9.38015 25.3497 9.375 26.25V32.8125C9.375 33.0612 9.27623 33.2996 9.10041 33.4754C8.9246 33.6512 8.68614 33.75 8.4375 33.75Z" fill="#FF9999"/>
<path d="M51.375 24.375C49.9252 24.3543 48.5125 23.9138 47.3078 23.1069C46.1032 22.2999 45.1583 21.161 44.5875 19.8281C43.3344 16.9852 41.2777 14.5705 38.6703 12.881C36.063 11.1915 33.0186 10.301 29.9118 10.3189C26.805 10.3369 23.7712 11.2625 21.1835 12.9819C18.5958 14.7014 16.5671 17.1396 15.3469 19.9969C14.8204 21.2793 13.928 22.3784 12.781 23.157C11.634 23.9356 10.2831 24.3592 8.89687 24.375H8.625C8.49092 24.3761 8.35816 24.3485 8.23567 24.294C8.11319 24.2394 8.00383 24.1592 7.91497 24.0588C7.82611 23.9584 7.75983 23.8401 7.72058 23.7119C7.68134 23.5837 7.67006 23.4486 7.6875 23.3156C8.40727 17.9104 11.0655 12.9505 15.1679 9.35818C19.2703 5.76586 24.5377 3.78558 29.9906 3.78558C35.4436 3.78558 40.7109 5.76586 44.8133 9.35818C48.9157 12.9505 51.574 17.9104 52.2937 23.3156C52.3112 23.4486 52.2999 23.5837 52.2607 23.7119C52.2214 23.8401 52.1551 23.9584 52.0663 24.0588C51.9774 24.1592 51.868 24.2394 51.7456 24.294C51.6231 24.3485 51.4903 24.3761 51.3562 24.375H51.375ZM30 5.62501C25.1933 5.62465 20.5374 7.30316 16.8366 10.3706C13.1358 13.438 10.6227 17.7017 9.73125 22.425C10.5924 22.2628 11.3994 21.8879 12.0788 21.3345C12.7583 20.7811 13.2887 20.0667 13.6219 19.2563C14.7632 16.5753 16.5447 14.2152 18.8103 12.3829C21.076 10.5507 23.7565 9.30222 26.6169 8.74698C29.4773 8.19175 32.4303 8.34669 35.2168 9.19825C38.0034 10.0498 40.5386 11.572 42.6 13.6313C44.1733 15.1909 45.4447 17.0281 46.35 19.05C46.7035 19.8734 47.2458 20.602 47.9331 21.1769C48.6204 21.7518 49.4334 22.1569 50.3062 22.3594C49.5215 18.3043 47.5431 14.5762 44.625 11.6531C42.7092 9.72822 40.4294 8.20387 37.9185 7.16893C35.4076 6.13399 32.7158 5.60915 30 5.62501Z" fill="#FF9999"/>
<path d="M28.125 30H23.4375C23.1888 30 22.9504 29.9012 22.7746 29.7254C22.5988 29.5496 22.5 29.3111 22.5 29.0625V28.125C22.4993 28.0016 22.5229 27.8793 22.5696 27.7651C22.6162 27.6509 22.685 27.547 22.7719 27.4594L26.8781 23.3531C27.0242 23.2063 27.1236 23.0195 27.1638 22.8163C27.2041 22.6131 27.1833 22.4026 27.1041 22.2112C27.0249 22.0198 26.8909 21.856 26.7189 21.7406C26.5469 21.6252 26.3446 21.5632 26.1375 21.5625H25.425C25.1465 21.5625 24.8794 21.6731 24.6825 21.87C24.4856 22.067 24.375 22.334 24.375 22.6125V23.4375C24.375 23.6861 24.2762 23.9246 24.1004 24.1004C23.9246 24.2762 23.6861 24.375 23.4375 24.375C23.1888 24.375 22.9504 24.2762 22.7746 24.1004C22.5988 23.9246 22.5 23.6861 22.5 23.4375V22.6125C22.5 22.2284 22.5756 21.848 22.7226 21.4932C22.8696 21.1383 23.0851 20.8158 23.3567 20.5442C23.6283 20.2726 23.9508 20.0571 24.3056 19.9102C24.6605 19.7632 25.0409 19.6875 25.425 19.6875H26.1375C26.9132 19.6875 27.6572 19.9957 28.2058 20.5442C28.7543 21.0928 29.0625 21.8367 29.0625 22.6125C29.065 22.9972 28.9908 23.3785 28.8443 23.7343C28.6979 24.09 28.482 24.413 28.2094 24.6844L24.7594 28.125H28.125C28.3736 28.125 28.6121 28.2238 28.7879 28.3996C28.9637 28.5754 29.0625 28.8139 29.0625 29.0625C29.0625 29.3111 28.9637 29.5496 28.7879 29.7254C28.6121 29.9012 28.3736 30 28.125 30ZM36.5625 26.25H34.6875C33.6929 26.25 32.7391 25.8549 32.0358 25.1516C31.3326 24.4484 30.9375 23.4946 30.9375 22.5V20.625C30.9375 20.3764 31.0363 20.1379 31.2121 19.9621C31.3879 19.7863 31.6263 19.6875 31.875 19.6875C32.1236 19.6875 32.3621 19.7863 32.5379 19.9621C32.7137 20.1379 32.8125 20.3764 32.8125 20.625V22.5C32.8125 22.9973 33.01 23.4742 33.3617 23.8258C33.7133 24.1775 34.1902 24.375 34.6875 24.375H35.625V20.625C35.625 20.3764 35.7238 20.1379 35.8996 19.9621C36.0754 19.7863 36.3138 19.6875 36.5625 19.6875C36.8111 19.6875 37.0496 19.7863 37.2254 19.9621C37.4012 20.1379 37.5 20.3764 37.5 20.625V25.3125C37.5 25.5611 37.4012 25.7996 37.2254 25.9754C37.0496 26.1512 36.8111 26.25 36.5625 26.25Z" fill="#FF9999"/>
<path d="M36.5625 30C36.3139 30 36.0754 29.9012 35.8996 29.7254C35.7238 29.5496 35.625 29.3111 35.625 29.0625V25.3125C35.625 25.0639 35.7238 24.8254 35.8996 24.6496C36.0754 24.4738 36.3139 24.375 36.5625 24.375C36.8111 24.375 37.0496 24.4738 37.2254 24.6496C37.4012 24.8254 37.5 25.0639 37.5 25.3125V29.0625C37.5 29.3111 37.4012 29.5496 37.2254 29.7254C37.0496 29.9012 36.8111 30 36.5625 30Z" fill="#FF9999"/>
</svg>

<svg width="60" height="60" fill="none" xmlns="http://www.w3.org/2000/svg"><path d="M10.313 46.875H7.5a3.75 3.75 0 01-3.75-3.75v-7.5a3.75 3.75 0 013.75-3.75h2.813a.938.938 0 01.937.938v13.124a.938.938 0 01-.938.938zM7.5 33.75a1.875 1.875 0 00-1.875 1.875v7.5A1.875 1.875 0 007.5 45h1.875V33.75H7.5z" fill="#F99"/><path d="M13.125 49.688a3.75 3.75 0 01-3.75-3.75V32.812a3.75 3.75 0 117.5 0v13.126a3.75 3.75 0 01-3.75 3.75zm0-18.75a1.875 1.875 0 00-1.875 1.875v13.124a1.875 1.875 0 103.75 0V32.813a1.875 1.875 0 00-1.875-1.876zM52.5 46.874h-2.813a.938.938 0 01-.937-.938V32.813a.938.938 0 01.938-.938H52.5a3.75 3.75 0 013.75 3.75v7.5a3.75 3.75 0 01-3.75 3.75zM50.625 45H52.5a1.875 1.875 0 001.875-1.875v-7.5A1.875 1.875 0 0052.5 33.75h-1.875V45z" fill="#F99"/><path d="M46.875 49.688a3.75 3.75 0 01-3.75-3.75V32.812a3.75 3.75 0 117.5 0v13.126a3.75 3.75 0 01-3.75 3.75zm0-18.75A1.875 1.875 0 0045 32.813v13.124a1.875 1.875 0 103.75 0V32.813a1.875 1.875 0 00-1.875-1.876zm-15 25.312h-3.75a2.812 2.812 0 110-5.625h3.75a2.812 2.812 0 110 5.625zm-3.75-3.75a.938.938 0 000 1.875h3.75a.938.938 0 000-1.875h-3.75z" fill="#F99"/><path d="M46.875 54.375H33.75a.938.938 0 010-1.875h13.125a4.687 4.687 0 004.688-4.688v-1.874a.938.938 0 011.874 0v1.874a6.563 6.563 0 01-6.562 6.563zm4.688-20.625a.938.938 0 01-.938-.938V26.25a19.99 19.99 0 00-.178-2.69.946.946 0 011.875-.244c.124.973.184 1.953.178 2.934v6.563a.937.937 0 01-.938.937zm-43.126 0a.938.938 0 01-.937-.938V26.25c0-.981.066-1.962.197-2.934a.945.945 0 111.875.243c-.126.892-.192 1.79-.197 2.691v6.563a.937.937 0 01-.938.937z" fill="#F99"/><path d="M51.375 24.375a7.501 7.501 0 01-6.788-4.547 15.938 15.938 0 00-29.24.169 7.06 7.06 0 01-6.45 4.378h-.272a.939.939 0 01-.938-1.06 22.5 22.5 0 0144.607 0 .937.937 0 01-.938 1.06h.019zM30 5.625a20.625 20.625 0 00-20.269 16.8 5.258 5.258 0 003.89-3.169A17.813 17.813 0 0142.6 13.631a17.97 17.97 0 013.75 5.419 5.709 5.709 0 003.956 3.31 20.728 20.728 0 00-5.681-10.707A20.465 20.465 0 0030 5.625z" fill="#F99"/><path d="M28.125 30h-4.688a.937.937 0 01-.937-.938v-.937a.937.937 0 01.272-.666l4.106-4.106a1.05 1.05 0 00-.74-1.79h-.713a1.05 1.05 0 00-1.05 1.05v.825a.938.938 0 01-1.875 0v-.825a2.924 2.924 0 012.925-2.925h.712a2.925 2.925 0 012.925 2.925 2.897 2.897 0 01-.853 2.071l-3.45 3.441h3.366a.938.938 0 010 1.875zm8.438-3.75h-1.876a3.75 3.75 0 01-3.75-3.75v-1.875a.938.938 0 011.875 0V22.5a1.875 1.875 0 001.876 1.875h.937v-3.75a.938.938 0 011.875 0v4.688a.938.938 0 01-.938.937z" fill="#F99"/><path d="M36.563 30a.938.938 0 01-.938-.938v-3.75a.938.938 0 011.875 0v3.75a.938.938 0 01-.938.938z" fill="#F99"/></svg>
